icons/outline/topology-full.svg

<!--
tags: [hierarchy, network, structure, connection]
category: Computers
unicode: "f5dc"
version: "1.112"
-->
<svg
  xmlns="http://www.w3.org/2000/svg"
  width="24"
  height="24"
  viewBox="0 0 24 24"
  fill="none"
  stroke="currentColor"
  stroke-width="2"
  stroke-linecap="round"
  stroke-linejoin="round"
>
  <path d="M20 18a2 2 0 1 0 -4 0a2 2 0 0 0 4 0zm-12 0a2 2 0 1 0 -4 0a2 2 0 0 0 4 0zm0 -12a2 2 0 1 0 -4 0a2 2 0 0 0 4 0zm12 0a2 2 0 1 0 -4 0a2 2 0 0 0 4 0zm-14 2v8m12 0v-8m-10 -2h8m0 12h-8m-.5 -10.5l9 9m-9 0l9 -9" />
</svg>

<!--
tags: [hierarchy, network, structure, connection]
category: Computers
unicode: "f5dc"
version: "1.112"
-->
<svg
  xmlns="http://www.w3.org/2000/svg"
  width="24"
  height="24"
  viewBox="0 0 24 24"
  fill="none"
  stroke="currentColor"
  stroke-width="2"
  stroke-linecap="round"
  stroke-linejoin="round"
>
    <path d="M20 18a2 2 0 1 0 -4 0a2 2 0 0 0 4 0zM8 18a2 2 0 1 0 -4 0a2 2 0 0 0 4 0zM8 6a2 2 0 1 0 -4 0a2 2 0 0 0 4 0zM20 6a2 2 0 1 0 -4 0a2 2 0 0 0 4 0zM6 8v8M18 16v-8M8 6h8M16 18h-8M7.5 7.5l9 9M7.5 16.5l9 -9" />
</svg>
